frontend/images/app/no-data.svg

<?xml version="1.0" encoding="UTF-8"?>
<svg width="210px" height="171px" viewBox="0 0 210 171" version="1.1" xmlns="http://www.w3.org/2000/svg" xmlns:xlink="http://www.w3.org/1999/xlink">
    <title>编组 22</title>
    <defs>
        <linearGradient x1="50%" y1="0%" x2="50%" y2="99.3908435%" id="linearGradient-1">
            <stop stop-color="#FFEBD7" offset="0%"></stop>
            <stop stop-color="#FFF8F3" offset="100%"></stop>
        </linearGradient>
        <ellipse id="path-2" cx="108.481531" cy="155.991932" rx="90.9426009" ry="14.1920321"></ellipse>
        <linearGradient x1="50%" y1="2.11019482%" x2="50%" y2="94.7852905%" id="linearGradient-4">
            <stop stop-color="#FFF6EE" offset="0%"></stop>
            <stop stop-color="#FFFFFF" offset="100%"></stop>
        </linearGradient>
        <path d="M30.7704786,0 C32.9796176,-4.05812251e-16 34.7704786,1.790861 34.7704786,4 L34.77,6.386 L112.374663,6.38641445 C114.583802,6.38641445 116.374663,8.17727545 116.374663,10.3864144 L116.374663,74.0561766 C116.374663,76.2653156 114.583802,78.0561766 112.374663,78.0561766 L33.825807,78.0571724 C33.0920693,78.9246109 31.9955934,79.4753798 30.7704786,79.4753798 L10.3864144,79.4753798 C9.16129964,79.4753798 8.06482379,78.9246109 7.33108606,78.0571724 L4,78.0561766 C1.790861,78.0561766 2.93507676e-15,76.2653156 0,74.0561766 L0,10.3864144 C-2.705415e-16,8.17727545 1.790861,6.38641445 4,6.38641445 L6.386,6.386 L6.38641445,4 C6.38641445,1.790861 8.17727545,4.05812251e-16 10.3864144,0 L30.7704786,0 Z" id="path-5"></path>
        <linearGradient x1="56.9902342%" y1="100%" x2="56.9902342%" y2="12.6240884%" id="linearGradient-7">
            <stop stop-color="#FFF2E6" offset="0%"></stop>
            <stop stop-color="#FFF9F4" offset="100%"></stop>
        </linearGradient>
        <path d="M16.9183502,17.0079588 C16.9183502,21.6030835 8.31612029,23.9944763 8.38550935,27.4599993 C8.15969416,23.9744986 -0.147331491,21.6030835 -0.147331491,17.0079588 L-0.147331491,17.0079588 L-0.147331491,8.68774946 C-0.147331491,3.97519159 3.67295148,0.154908615 8.38550935,0.154908615 C13.0980672,0.154908615 16.9183502,3.97519159 16.9183502,8.68774946 Z" id="path-8"></path>
    </defs>
    <g id="2025-大魔当" stroke="none" stroke-width="1" fill="none" fill-rule="evenodd">
        <g id="详情页1" transform="translate(-1423.000000, -294.000000)">
            <g id="编组-22" transform="translate(1423.515532, 294.637990)">
                <g id="编组-69" transform="translate(0.000000, -0.000000)">
                    <mask id="mask-3" fill="white">
                        <use xlink:href="#path-2"></use>
                    </mask>
                    <use id="蒙版" fill="url(#linearGradient-1)" opacity="0.5" xlink:href="#path-2"></use>
                    <path d="M12.9409517,142.571801 C-28.492081,88.1530873 44.9156268,95.3095262 21.3634504,79.5033341 C-2.18872601,63.6971421 -2.18872601,32.4193215 55.5054519,18.1102188 C113.19963,3.80111613 159.472241,24.1136138 149.004155,48.6891176 C138.536069,73.2646213 250.823429,71.6910736 185.407598,136.055358 C115.92407,148.329763 52.8269534,145.962166 12.9409517,142.571801 Z" id="路径-3" fill="url(#linearGradient-4)"></path>
                    <g id="矩形" transform="translate(49.024300, 65.666103)">
                        <mask id="mask-6" fill="white">
                            <use xlink:href="#path-5"></use>
                        </mask>
                        <path stroke="#F7D8BD" d="M30.7704786,-0.5 C32.0131193,-0.5 33.1381193,0.00367965644 33.9524592,0.818019485 C34.766799,1.63235931 35.2704786,2.75735931 35.2704786,4.0001003 L35.2704786,4.0001003 L35.2701003,5.88600267 L112.374663,5.88641445 C113.617304,5.88641445 114.742304,6.3900941 115.556644,7.20443393 C116.370984,8.01877376 116.874663,9.14377376 116.874663,10.3864144 L116.874663,10.3864144 L116.874663,74.0561766 C116.874663,75.2988172 116.370984,76.4238172 115.556644,77.2381571 C114.742304,78.0524969 113.617304,78.5561766 112.37467,78.5561766 L112.37467,78.5561766 L34.0496101,78.5571695 C33.2288431,79.4302341 32.0633062,79.9753798 30.7704786,79.9753798 L30.7704786,79.9753798 L10.3864144,79.9753798 C9.09355524,79.9753798 7.92799293,79.4302074 7.10722281,78.5571055 L7.10722281,78.5571055 L4,78.5561766 C2.75735931,78.5561766 1.63235931,78.0524969 0.818019485,77.2381571 C0.00367965644,76.4238172 -0.5,75.2988172 -0.5,74.0561766 L-0.5,74.0561766 L-0.5,10.3864144 C-0.5,9.14377376 0.00367965644,8.01877376 0.818019485,7.20443393 C1.63235931,6.3900941 2.75735931,5.88641445 3.99991315,5.88641445 L3.99991315,5.88641445 L5.88608683,5.88608683 L5.88641445,4 C5.88641445,2.75735931 6.3900941,1.63235931 7.20443393,0.818019485 C8.01877376,0.00367965644 9.14377376,-0.5 10.3864144,-0.5 L10.3864144,-0.5 Z"></path>
                        <rect fill="#FFEBD8" mask="url(#mask-6)" x="-2.53983217" y="14.6959069" width="119" height="71"></rect>
                    </g>
                    <path d="M46.731576,99.1003624 L166.986686,99.1003624 C169.437999,99.1003624 171.265792,100.397832 171.069175,101.998341 L165.402469,148.126743 C165.205852,149.727252 163.255602,151.024721 161.046463,151.024721 L52.6717993,151.024721 C50.4626603,151.024721 48.51241,149.727252 48.3157932,148.126743 L42.6490867,101.998341 C42.45247,100.397832 44.2802627,99.1003624 46.731576,99.1003624 Z" id="蒙版" stroke="#F7D8BD" fill="url(#linearGradient-7)"></path>
                    <g id="编组-21" transform="translate(161.213079, 22.958530) rotate(-113.000000) translate(-161.213079, -22.958530) translate(147.959981, -4.577000)">
                        <circle id="椭圆形备份-13" fill="#F14D00" cx="1.70061651" cy="54.3614578" r="1"></circle>
                        <circle id="椭圆形备份-14" fill="#FFFFFF" cx="1.77400401" cy="1.77400401" r="1.77400401"></circle>
                        <circle id="椭圆形备份-15" fill="#FF8618" cx="25.4417948" cy="35.6520466" r="1.06440241"></circle>
                    </g>
                </g>
                <g id="编组-15" transform="translate(179.009325, 41.782870) rotate(32.000000) translate(-179.009325, -41.782870) translate(153.484468, 26.782870)">
                    <path d="M7.67955676,23.1737273 C11.9208588,23.1737273 16.9183502,19.7354726 16.9183502,15.4941706 C16.9183502,11.2528685 11.9208588,7.81461381 7.67955676,7.81461381 C3.43825468,7.81461381 0,11.2528685 0,15.4941706 C0,19.7354726 3.43825468,23.1737273 7.67955676,23.1737273 Z" id="椭圆形" fill="#FFE1C7"></path>
                    <path d="M41.8109201,23.1737273 C46.0522222,23.1737273 51.0497136,19.7354726 51.0497136,15.4941706 C51.0497136,11.2528685 46.0522222,7.81461381 41.8109201,7.81461381 C37.569618,7.81461381 34.1313634,11.2528685 34.1313634,15.4941706 C34.1313634,19.7354726 37.569618,23.1737273 41.8109201,23.1737273 Z" id="椭圆形备份-2" fill="#FFE1C7" transform="translate(42.590538, 15.494171) scale(-1, 1) translate(-42.590538, -15.494171) "></path>
                    <g id="路径-50-+-路径-50备份-蒙版" transform="translate(17.065682, 2.694909)">
                        <mask id="mask-9" fill="white">
                            <use xlink:href="#path-8"></use>
                        </mask>
                        <use id="蒙版" fill="#FF7400" xlink:href="#path-8"></use>
                        <polygon id="路径-50" fill="#FFFFFF" fill-rule="nonzero" mask="url(#mask-9)" points="20.478818 6.82627267 20.478818 10.239409 -3.41313634 10.239409 -3.41313634 6.82627267"></polygon>
                        <polygon id="路径-50备份" fill="#FFFFFF" fill-rule="nonzero" mask="url(#mask-9)" points="20.478818 13.6525453 20.478818 17.0656817 -3.41313634 17.0656817 -3.41313634 13.6525453"></polygon>
                    </g>
                    <polygon id="路径-51" fill="#FF7400" fill-rule="nonzero" points="17.6690446 0 22.8599457 5.19090104 21.6532198 6.39762696 16.4623187 1.20672592"></polygon>
                    <polygon id="路径-51备份" fill="#FF7400" fill-rule="nonzero" transform="translate(31.607109, 3.198813) scale(-1, 1) translate(-31.607109, -3.198813) " points="29.6150218 0 34.8059229 5.19090104 33.5991969 6.39762696 28.4082959 1.20672592"></polygon>
                </g>
            </g>
        </g>
    </g>
</svg>

<svg xmlns="http://www.w3.org/2000/svg" xmlns:xlink="http://www.w3.org/1999/xlink" width="210" height="171"><defs><linearGradient id="b" x1="50%" x2="50%" y1="0%" y2="99.391%"><stop offset="0%" stop-color="#FFEBD7"/><stop offset="100%" stop-color="#FFF8F3"/></linearGradient><linearGradient id="c" x1="50%" x2="50%" y1="2.11%" y2="94.785%"><stop offset="0%" stop-color="#FFF6EE"/><stop offset="100%" stop-color="#FFF"/></linearGradient><linearGradient id="f" x1="56.99%" x2="56.99%" y1="100%" y2="12.624%"><stop offset="0%" stop-color="#FFF2E6"/><stop offset="100%" stop-color="#FFF9F4"/></linearGradient><path id="d" d="M30.77 0a4 4 0 0 1 4 4v2.386h77.605a4 4 0 0 1 4 4v63.67a4 4 0 0 1-4 4l-78.55.001a3.991 3.991 0 0 1-3.055 1.418H10.386a3.991 3.991 0 0 1-3.055-1.418H4a4 4 0 0 1-4-4v-63.67a4 4 0 0 1 4-4l2.386-.001V4a4 4 0 0 1 4-4H30.77Z"/><path id="g" d="M16.918 17.008c0 4.595-8.602 6.986-8.532 10.452-.226-3.486-8.533-5.857-8.533-10.452v-8.32a8.533 8.533 0 1 1 17.065 0Z"/><ellipse id="a" cx="108.482" cy="155.992" rx="90.943" ry="14.192"/></defs><g fill="none" fill-rule="evenodd"><g transform="translate(.516 .638)"><use xlink:href="#a" fill="url(#b)" opacity=".5"/><path fill="url(#c)" d="M12.941 142.572c-41.433-54.419 31.975-47.262 8.422-63.069C-2.189 63.697-2.189 32.42 55.505 18.11c57.695-14.309 103.967 6.004 93.5 30.58-10.469 24.575 101.818 23.001 36.403 87.365-69.484 12.275-132.581 9.907-172.467 6.517Z"/><g transform="translate(49.024 65.666)"><mask id="e" fill="#fff"><use xlink:href="#d"/></mask><path stroke="#F7D8BD" d="M30.77-.5c1.243 0 2.368.504 3.182 1.318A4.486 4.486 0 0 1 35.27 4v1.886h77.105c1.242 0 2.367.504 3.182 1.318a4.486 4.486 0 0 1 1.318 3.182v63.67a4.486 4.486 0 0 1-1.318 3.182 4.486 4.486 0 0 1-3.182 1.318l-78.325.001a4.487 4.487 0 0 1-3.28 1.418H10.386a4.487 4.487 0 0 1-3.279-1.418H4a4.486 4.486 0 0 1-3.182-1.319A4.486 4.486 0 0 1-.5 74.056v-63.67C-.5 9.144.004 8.02.818 7.204A4.486 4.486 0 0 1 4 5.886h1.886V4c0-1.243.504-2.368 1.318-3.182A4.486 4.486 0 0 1 10.386-.5Z"/><path fill="#FFEBD8" d="M-2.54 14.696h119v71h-119z" mask="url(#e)"/></g><path fill="url(#f)" stroke="#F7D8BD" d="M46.732 99.1h120.255c2.451 0 4.279 1.298 4.082 2.898l-5.667 46.129c-.196 1.6-2.146 2.898-4.356 2.898H52.672c-2.21 0-4.16-1.298-4.356-2.898l-5.667-46.129c-.197-1.6 1.631-2.898 4.083-2.898Z"/><g transform="rotate(-113 85.718 -23.72)"><circle cx="1.701" cy="54.361" r="1" fill="#F14D00"/><circle cx="1.774" cy="1.774" r="1.774" fill="#FFF"/><circle cx="25.442" cy="35.652" r="1.064" fill="#FF8618"/></g></g><path fill="#FFE1C7" d="M160.06 39.896c3.597 2.248 9.657 1.98 11.904-1.617 2.248-3.597-.168-9.16-3.765-11.408a7.68 7.68 0 0 0-8.14 13.025ZM190.327 58.81c-3.597-2.248-6.013-7.812-3.765-11.41 2.247-3.596 8.307-3.864 11.904-1.616a7.68 7.68 0 0 1-8.139 13.025Z"/><g transform="rotate(32 41.479 325.651)"><mask id="h" fill="#fff"><use xlink:href="#g"/></mask><use xlink:href="#g" fill="#FF7400"/><path fill="#FFF" fill-rule="nonzero" d="M20.479 6.826v3.413H-3.413V6.826zM20.479 13.653v3.413H-3.413v-3.413z" mask="url(#h)"/></g><path fill="#FF7400" fill-rule="nonzero" d="m180.812 25.537 1.65 7.153-1.662.384-1.652-7.153zM194.321 33.979l-7.153 1.651.384 1.664 7.153-1.652z"/></g></svg>
